svg/toolbarSaveDraft.svg

<svg width="284" height="284" viewBox="0 0 284 284" fill="none" xmlns="http://www.w3.org/2000/svg">
<path fill-rule="evenodd" clip-rule="evenodd" d="M153.903 238.01C153.48 238.01 153.056 237.973 152.633 237.899L41.2932 218.145C37.3382 217.444 34.7012 213.669 35.4032 209.715C36.1062 205.761 39.8762 203.131 43.8342 203.825L151.794 222.979L237.229 150.063C240.286 147.457 244.874 147.82 247.481 150.873C250.088 153.929 249.726 158.519 246.671 161.125L158.623 236.269C157.297 237.402 155.619 238.01 153.903 238.01Z" fill="#1A1919"/>
<path fill-rule="evenodd" clip-rule="evenodd" d="M149.337 168.934C148.994 168.934 148.647 168.904 148.298 168.844L96.5937 159.908C93.2957 159.339 91.0837 156.203 91.6547 152.905C92.2237 149.608 95.3557 147.394 98.6577 147.966L150.362 156.902C153.659 157.471 155.871 160.608 155.301 163.905C154.792 166.853 152.231 168.934 149.337 168.934Z" fill="#1A1919"/>
<path fill-rule="evenodd" clip-rule="evenodd" d="M153.903 273.517C153.48 273.517 153.056 273.48 152.633 273.406L41.2932 253.651C37.3382 252.949 34.7012 249.175 35.4032 245.221C36.1062 241.267 39.8762 238.634 43.8342 239.33L151.794 258.486L237.229 185.569C240.286 182.962 244.874 183.326 247.481 186.379C250.088 189.433 249.726 194.024 246.671 196.631L158.624 271.776C157.297 272.909 155.62 273.517 153.903 273.517Z" fill="#1A1919"/>
<path fill-rule="evenodd" clip-rule="evenodd" d="M170.151 71.8285V16.2465C170.151 13.0625 167.071 10.4815 163.272 10.4815H114.749C110.95 10.4815 107.87 13.0625 107.87 16.2465V71.8285H67.1606L139.011 141.845L210.859 71.8285H170.151Z" fill="#1A1919"/>
<path fill-rule="evenodd" clip-rule="evenodd" d="M210.261 99.2703C209.327 96.9723 207.287 95.3073 204.847 94.8553L200.257 94.0053L187.503 106.434L196.109 108.028L185.633 119.208C184.087 120.858 183.482 123.18 184.028 125.374C184.573 127.569 186.195 129.337 188.335 130.071L208.017 136.823L151.724 185.483L59.0826 169.047L110.395 125.805L99.9286 115.605L37.8356 167.933C35.6786 169.751 34.7676 172.654 35.4986 175.379C36.2306 178.105 38.4726 180.16 41.2516 180.654L152.592 200.407C153.014 200.482 153.439 200.518 153.862 200.518C155.594 200.518 157.286 199.899 158.617 198.748L222.799 143.269C225.156 141.231 225.954 137.919 224.782 135.032L210.261 99.2703Z" fill="#1A1919"/>
</svg>

<svg width="284" height="284" viewBox="0 0 284 284" xmlns="http://www.w3.org/2000/svg">
    <g fill="#1A1918" fill-rule="evenodd">
        <path d="M153.903 238.01c-.423 0-.847-.037-1.27-.111l-111.34-19.754a7.27 7.27 0 1 1 2.541-14.32l107.96 19.154 85.435-72.916a7.272 7.272 0 1 1 9.442 11.062l-88.048 75.144a7.267 7.267 0 0 1-4.72 1.74M149.337 168.934c-.343 0-.69-.03-1.04-.09l-51.703-8.936a6.058 6.058 0 0 1-4.94-7.003 6.056 6.056 0 0 1 7.004-4.94l51.704 8.936a6.06 6.06 0 0 1-1.025 12.032"/>
        <path d="M153.903 273.517c-.423 0-.847-.037-1.27-.11L41.293 253.65a7.271 7.271 0 1 1 2.541-14.32l107.96 19.155 85.435-72.917a7.272 7.272 0 0 1 9.442 11.062l-88.047 75.145a7.27 7.27 0 0 1-4.721 1.741M170.15 71.829V16.247c0-3.184-3.08-5.765-6.878-5.765h-48.523c-3.8 0-6.88 2.58-6.88 5.765v55.582H67.162l71.85 70.016 71.848-70.016H170.15z"/>
        <path d="M210.26 99.27a7.275 7.275 0 0 0-5.413-4.415l-4.59-.85-12.754 12.43 8.606 1.593-10.476 11.18a6.665 6.665 0 0 0 2.702 10.863l19.682 6.752-56.293 48.66-92.641-16.436 51.312-43.242-10.466-10.2-62.093 52.328a7.274 7.274 0 0 0 3.416 12.721l111.34 19.753a7.27 7.27 0 0 0 6.025-1.659l64.182-55.479a7.273 7.273 0 0 0 1.983-8.237L210.26 99.27z"/>
    </g>
</svg>
